X:1
T: A Scots Measure
C:
R:Reel
I:speed 232
Q:232
K:G
M:4/4
L:1/8
|:dB|G3A B2AG|A2e2 e3g|d3B dB AG|AB AG E2DE|
G3A B2AG|A2e2 e3f|ga ba ge dB|d2g2 g2gf|
e3d ef ga|b3a g2G2|A3B AB cd|e2A2 A2dc|
BA BG ge dB|AB AG E2GE|D3d AB cd|B2AG G2:|
